!!!COM: Palestrina, Giovanni Perluigi da
!!!OPR: Missa In semidupl. maj. (II)
!!!OMD: Gloria
!!!OTL: Benedicimus te
**kern	**kern	**kern	**kern	**kern
*Ibass	*Itenor	*Itenor	*Icalto	*Icant
!Bassus	!Tenor 2	!Tenor 1	!Altus	!Cantus
*clefF4	*clefGv2	*clefGv2	*clefG2	*clefG2
*k[b-]	*k[b-]	*k[b-]	*k[b-]	*k[b-]
*F:ion	*F:ion	*F:ion	*F:ion	*F:ion
*M4/2	*M4/2	*M4/2	*M4/2	*M4/2
=12	=12	=12	=12	=12
0r	0r	0r	1c	1cc
.	.	.	2d	2a
.	.	.	4B-	[2b-
.	.	.	4c	.
=13	=13	=13	=13	=13
0r	0r	0r	4d	2b-]
.	.	.	4e	.
.	.	.	2f	4a
.	.	.	.	4g
.	.	.	2F	1a
.	.	.	[2f	.
=14	=14	=14	=14	=14
1C	0r	1c	2f]	2g
.	.	.	2e	2g
2D	.	2A	[1f	4f
.	.	.	.	4e
4BB-	.	[2B-	.	4d
4C	.	.	.	4e
=15	=15	=15	=15	=15
4D	0r	2B-]	1f]	4f
4E	.	.	.	4g
2F	.	4A	.	4a
.	.	4G	.	4b-
2FF	.	1A	2r	1cc
[2F	.	.	2c	.
=16	=16	=16	=16	=16
2F]	1r	2G	2d	2r
2E	.	2G	1c	2g
2F	1c	2F	.	2a
[2F	.	2c	2A	2f
=17	=17	=17	=17	=17
2F]	2A	2c	1F	2f
2BB-	1B-	1d	.	4d
.	.	.	.	4e
2.D	.	.	2r	4f
.	.	.	.	4g
.	4A	2d	[2F	[2a
4E	4G	.	.	.
=18	=18	=18	=18	=18
2F	1A	2c	4F]	4a]
.	.	.	4G	4g
2F	.	2.c	4A	1f
.	.	.	4B-	.
1C	2G	.	1c	.
.	.	4B-	.	.
.	2G	2G	.	2e
=19	=19	=19	=19	=19
[0FF	[0F	[0A	[0c	[0f
=20	=20	=20	=20	=20
0FF]	0F]	0A]	0c]	0f]
*-	*-	*-	*-	*-
!!!CDT: 1525/^1526/-1594/2/2
!!!OCY: Italia
!!!AGN: Mass (Paraphrase)
!!!AST: renaissance, vocal
!!!ASW: Gregorian Mass
!!!PWK: Masses, Book Mantuan II
!!!RNB: Cadence finals: C
!!!YOR: Le Opere Complete, v. 19, p. 87
!!!YOO: Rome, Italy: Fratelli Scalera
!!!END: 1992//
!!!EED: John Miller
!!!YEC: Copyright 2000, John Miller
!!!YEN: United States of America
!!!YEM: Rights to all derivative electronic formats reserved.
!!!YEM: Refer to licensing agreement for further details.
!!!YEM: This file must be accompanied by the licensing agreement.
!!!YEM: A copy of the licensing agreement may be found at http://www.music-cog.ohio-state.edu/HumdrumDatabases/Palestrina/license.txt
!!!EMD: converted to Humdrum by Bret Aarden
